src/svg/magento.svg

<svg height="1000" width="875.0" xmlns="http://www.w3.org/2000/svg">
    <path d="m870.5 249.8v500.2l-123.8 71.3v-499.6l-309.6-178.9-309.8 178.9 0.8 499.8-123.6-71.5v-499.8l433.4-250.2z m-371.3 571.5v-499.8l123.8 71.5v500l-185.7 107.2-185.3-107.2-0.2-499.8 123.6-71.5v500l62.1 35.5z" />
  </svg>

<svg height="1000" width="875" xmlns="http://www.w3.org/2000/svg"><path d="M870.5 249.8V750l-123.8 71.3V321.7L437.1 142.8 127.3 321.7l.8 499.8L4.5 750V250.2L437.9 0l432.6 249.8zM499.2 821.3l-61.7 35.9 -62.1 -35.5v-500l-123.6 71.5L252 893l185.3 107.2L623 893V393L499.2 321.5v499.8z"/></svg>
